X:1
T: A Trip to Amsterdam
N:
C:
S:"The Last New Vagaries"
A:
O:
R:
M:6/8
K:G
I:speed 165
%W:         A
% voice 1 (1 lines, 31 notes)
K:G
M:6/8
L:1/16
G4 g2 d4 B2 d6 e6 d2 c2 B2 A4 G2 A6 D6 |E2 F2 G2 F2 G2 A2 G2 A2 B2 A2 B2 c2 B2 ^c2 d2 d4 c2 d12 |
%W:
% voice 1 (1 lines, 32 notes)
G4 g2 d4 B2 d6 e6 d2 c2 B2 A4 G2 A6 D6 |E2 F2 G2 F2 G2 A2 G2 A2 B2 A2 B2 c2 B2 ^c2 d2 d4 c2 d6d4 ||
%W:           B
% voice 1 (1 lines, 31 notes)
A2 |F4 A2 E4 A2 D6 A6 d2 c2 B2 c4 d2 e6e4 f2 |g4 B2 e4 A2 d4 G2 F4 A2 d2 c2 B2 A4 G2 G6G4 A2 |
%W:
% voice 1 (1 lines, 28 notes)
F4 A2 E4 A2 D6 A6 d2 c2 B2 c4 d2 e6e4 f2 |g4 B2 e4 A2 d4 G2 F4 A2 d2 c2 B2 A4 G2 G12 ||
